icons/file-shield-2-fill.svg

<svg xmlns="http://www.w3.org/2000/svg" width="24" height="24" fill="none"><g clip-path="url(#a)"><g><path fill="#121212" d="M21 10H11V17.382C11 18.945 11.777 20.405 13.074 21.274L14.157 22H3.993C3.72981 22 3.47739 21.8955 3.2912 21.7095C3.105 21.5235 3.00027 21.2712 3 21.008V2.992C3 2.455 3.447 2 3.998 2H15.997L21 7V10ZM13 12H21V17.382C21 18.279 20.554 19.116 19.813 19.612L17 21.499L14.187 19.614C13.8212 19.3681 13.5216 19.036 13.3146 18.6469C13.1076 18.2578 12.9996 17.8237 13 17.383V12Z"/></g></g><defs><clipPath id="a"><rect width="24" height="24" fill="white"/></clipPath></defs></svg>

<svg width="24" height="24" fill="none" xmlns="http://www.w3.org/2000/svg"><g clip-path="url(#a)"><path d="M21 10H11v7.382c0 1.563.777 3.023 2.074 3.892l1.083.726H3.993A.993.993 0 0 1 3 21.008V2.992C3 2.455 3.447 2 3.998 2h11.999L21 7v3Zm-8 2h8v5.382c0 .897-.446 1.734-1.187 2.23L17 21.499l-2.813-1.885A2.684 2.684 0 0 1 13 17.383V12Z" /></g><defs><clipPath id="a"><path fill="#fff" d="M0 0h24v24H0z"/></clipPath></defs></svg>
